2eb
albertroad.htmlalbertroad.htmlalbertroad.htmlalbertroad.htmlalbertroad.htmlalbertroad.htmlalbertroad.html<P ALIGN=Right>Brendan Ring
albertroad.htmlalbertroad.html

T:Maverick Angels
M:C|
L:1/8
C:Brendan Ring
R:reel
D:Brendan Ring: Troublesome Things
Z:Devin McCabe
K:BMin
f~B3 fgef|^d~A3 dAeA|f~B3 fgef|^dBfB gfeg|
!f~B3 fgef|^d~A3 edef|^d~B3 A~f3|1e^ded B3f:|2e^ded B3b|
!:c'~b3 b~a3|a~f3 feef|az~f2 f~e3|e^def defb|
!c'~b3 b~a3|a~f3 feef|az~f2 f~e3|1e^ded B3b:|2e^ded Bc^de||



albertroad.htmlalbertroad.htmlalbertroad.htmlalbertroad.htmlalbertroad.htmlalbertroad.html
0

